!!!OTL: Ritter und Magd.
!!!OTL-incipit: Es spielet ein Ritter mit einer Dam'
!!!ARE: Europa, Mitteleuropa, Deutschland (BRD), Nord - Bayern, Franken
!!!YOR: 3, S. 60
!!    1855 gedruckt in Leipzig
!!!SCT: Q0055a
!!!TXL: @@DE
!!!YEM: Copyright 1995, estate of Helmut Schaffrath.
**kern	**text
*ICvox	*
*M6/8	*
*k[b-]	*
*F:	*
{16fL	Es
16aJ	.
=:	=:
8.cc	ſpie-
16b-	-let
8a	ein
=1	=1
8ff	Rit-
8ee	-ter
8dd	mit
=:	=:
4dd	ei-
8cc	-ner
=2	=2
4cc}	Dam'
{16aL	bis
16b-J	.
=:	=:
4cc	an
8cc	den
=3	=3
8ffL	hel-
8eeJ	.
8dd	-len
=:	=:
(4dd	Ta-
8cc)	.
=4	=4
4cc}	-ge
{16cc	fi-
16cc	-li-
=:	=:
8ff	-ri-
8cc	-tum
8a	tum
=5	=5
4cc	ta,
16a	fi-
16a	-li-
=:	=:
8b-	-ri-
8a	-tum
8g	tum
=6	=6
4ff}	ta,
{8dd	bis
=:	=:
4cc	an
8a	den
=7	=7
8ccL	hel-
8b-J	.
8a	-len
=:	=:
(4g	Ta-
8a)	.
4f}	-ge.
==	==
!!!AGN: Ballade, Betrug, Schwangerschaft, Tod, Selbstmord, Herr und Magd
!! Dritte Zeile = Refrain auf sinnfreie Silben.
!!!ONB: ESAC (Essen Associative Code) Database: BALLADE
!!!AMT: compound duple
!!!AIN: vox
!!!EED: Helmut Schaffrath
!!!EEV: 1.0
!!!source: Deutsche Volkslieder mit ihren Melodien. Herausgegeben vom Deutschen Volksliedarchiv. Dritter Band Balladen. Berlin 1954.
!!!page: 60
!!!ENC: Anna Maria Matuszewska
!!!EEV: 2025/02/18
*-	*-
